!!!COM: Beethoven, Ludwig van
!!!CDT: 1770///-1827///
!!!OTL: Piano Sonata no. 32 in C minor
!!!ODT: 1821///-1822///
!!!ODE: Ersterzog Rudolph von &Ouml;sterreich
!!!OPS: 111
!!!OMV: 1
!!!OMD: Maestoso
**kern	**kern	**dynam
*staff2	*staff1	*staff1/2
*Ipiano	*Ipiano	*Ipiano
*>[A,B,B1,B,B2,C]	*>[A,B,B1,B,B2,C]	*>[A,B,B1,B,B2,C]
*>norep[A,B,B2,C]	*>norep[A,B,B2,C]	*>norep[A,B,B2,C]
*>A	*>A	*>A
*clefF4	*clefG2	*
*k[b-e-a-]	*k[b-e-a-]	*k[b-e-a-]
*kcancel	*kcancel	*
*c:	*c:	*c:
*M4/4	*M4/4	*M4/4
*MM60	*MM60	*MM60
32E- 32e-	32r	f
=1	=1	=1
8..FF# 8..F#L	8..r	.
32FFF# 32FF#Jkk	32e- 32a 32cc 32ee-	f
[4FF# [4F#	[4e- [4a [4cc [4ee-	sf
8..FF#] 8..F#L]	8..e-] 8..a] 8..cc] 8..ee-L]	.
32F# 32e-Jkk	32a 32ccJkk	.
*	*^	*
4F# 4e-	8.ccTL	4a	sf >
.	32bLL	.	.
.	32ccJJJ	.	]]
*	*v	*v	*
=2	=2	=2
8G 8d	8g 8b	p
8r	8r	.
8C 8G 8c	8e- 8g 8cc	.
8r	8r	.
*ped	*	*
.	(>32qBBB<LLL	.
!	!	!LO:DY:t=cresc.
.	32qDD<	<
.	32qGG<	.
.	32qBB<	.
.	32qD<	.
.	32qG<	.
.	32qB<JJJ	.
.	32qdLLL	.
.	32qg	.
.	32qbJJJ	.
8BBB 8BB	8d 8g 8dd)	f
*Xped	*	*
8r	8r	.
8..r	4r	.
!	!	!LO:DY:b=2:rj
32A- 32a-	.	f
=3	=3	=3
!LO:DY:rj	!	!
8..BBz 8..BzL	8..r	.
!	!	!LO:DY:rj
32BBB 32BBJkk	32a- 32dd 32ff 32aa-	f
[4BB [4B	[4a- [4dd [4ff [4aa-	sf
8..BB] 8..BL]	8..a-] 8..dd] 8..ff] 8..aa-L]	.
*clefG2	*	*
32B 32a-Jkk	32dd 32ffJkk	.
*	*^	*
4B 4a-	8.ffTL	4dd	sf >
.	32eeLL	.	.
.	32ffJJJ	.	]]
*clefF4	*	*	*
*	*v	*v	*
!!LO:LB:g=original
=4	=4	=4
!	!	!LO:DY:rj
8B- 8d-	8g 8ee	p
8r	8r	.
8A- 8c	8f 8cc 8ff	.
!	!	!LO:DY:t=cresc.
8r	8r	<
*ped	*	*
.	32qEE<LLL	.
.	32qGG<	.
.	32qC<	.
.	32qE<	.
.	32qG<	.
.	32qc<	.
.	32qe<JJJ	.
.	32qgLLL	.
.	32qcc	.
.	32qeeJJJ	.
8EE 8E	8g 8cc 8gg	f
8r	8r	.
8..r	4r	.
*Xped	*	*
!	!	!LO:DY:b=2:rj
32D- 32d-X	.	f
=5	=5	=5
8..EE 8..EL<	8..r	.
!	!	!LO:DY:rj
32FF 32FJkk	32dd- 32ff 32bb- 32ddd-	f
[4FF\ [4F\	[4dd- [4ff [4bb- [4ddd-	sf
8..FF] 8..FL]	8..dd-] 8..ff] 8..bb-] 8..ddd-L]	.
32F 32B- 32d-Jkk	32dd- 32bb-Jkk	.
*	*^	*
4F 4B- 4d-	8.bb-TL	4dd-	sf >
.	32aaLL	.	.
.	32bb-JJJ	.	]]
*	*v	*v	*
=6	=6	=6
8..G- 8..B- 8..d-L	8..dd- 8..ee-X 8..bb-L	.
32G 32B- 32d-Jkk	32dd- 32ee- 32bb-Jkk	.
[4G [4B- [4d-	[4dd- [4ee- [4bb-	.
!	!	!LO:HP:t=dim.
8..G] 8..B-] 8..d-L]	8..dd-] 8..ee-] 8..bb-L]	>
32A- 32cJkk	32cc 32ee- 32aa-Jkk	.
8..A- 8..cL	8..cc 8..ee- 8..aa-L	.
32A 32e- 32g-Jkk	32cc 32ee- 32gg-Jkk	.
!!LO:LB:g=original
=7	=7	=7
!	!	!LO:DY:rj
8..A 8..e- 8..g-L	8..cc 8..ee- 8..gg-L	pp
32B- 32e- 32g-Jkk	32b- 32ee- 32gg-Jkk	.
[4B- [4e- [4g-	[4b- [4ee- [4gg-	.
8..B-] 8..e-] 8..g-L]	8..b-] 8..ee-] 8..gg-L]	.
32c- 32e- 32g-Jkk	32a 32ee- 32gg-Jkk	.
8..c- 8..e- 8..g-L	8..a 8..ee- 8..gg-L	.
32c 32e- 32g-Jkk	32a- 32ee- 32gg-Jkk	.
=8	=8	=8
!	!	!LO:DY:t=sempre %s
8..c 8..e- 8..g-L	8..a- 8..ee- 8..gg-L	pp
32d- 32fJkk	32a- 32dd- 32ffJkk	.
[4d- [4f	[4a- [4dd- [4ff	.
8..d-] 8..fL]	8..a-] 8..dd-] 8..ffL]	.
32d 32fJkk	32a- 32cc- 32ffJkk	.
8..d 8..fL	8..a- 8..cc- 8..ffL	.
32DDn 32DnJkk	32a- 32cc- 32ffJkk	.
=9	=9	=9
8..DD 8..DL	8..a- 8..cc- 8..ffL	.
32EE- 32E-Jkk	32a- 32cc 32ee-Jkk	.
[4EE- [4E-	[4a- [4cc [4ee-	.
8..EE-] 8..E-L]	8..a-] 8..cc] 8..ee-L]	.
32EE- 32E-Jkk	32a- 32cc 32ee-Jkk	.
8..EE- 8..E-L	8..a- 8..cc 8..ee-L	.
32EE 32EJkk	32gn 32b- 32dd-Jkk	.
=10	=10	=10
8..EE 8..EL	8..g 8..b- 8..dd-L	<
32FF 32FJkk	32f 32b- 32dd-Jkk	.
8..FF 8..FL	8..f 8..b- 8..dd-L	.
32GG 32GJkk	32e 32b- 32dd-Jkk	.
8GG' 8G'L	8e 8b- 8dd-L	f
8AA-' 8A-'	8c' 8f' 8cc'	.
8AA-' 8A-'	8c' 8f' 8cc'	.
8AAA-' 8AA-'J	8c' 8f#' 8cc'J	.
!!LO:LB:g=original
=11	=11	=11
8GGG' 8GG'	8dn' 8g' 8b'	sf
!	!	!LO:DY:b=2
8GL	8r	sfp
8G	4r	.
!	!	!LO:DY:b=2
8G 8A-J	.	sfp
8F 8A-L	4r	.
!	!	!LO:DY:b=2
8F 8G	.	sfp
*	*^	*
8F 8G	(4g	8r	p
8E- 8GJ	.	8c	.
=12	=12	=12	=12
*^	*	*	*
8GL	(4E-	4a	4c 4f#	.
8G	.	.	.	.
8G	4D	4b	4d 4f	.
8GJ	.	.	.	.
8GL	4C)	4cc)	4e- 4g	.
8G	.	.	.	.
*	*	*v	*v	*
8G	(>8..FF#L	(8..e- 8..a 8..ccL	.
[8GJ	.	.	.
.	32GGJkk)	32d) 32g 32bJkk	.
*v	*v	*	*
=13	=13	=13
8GG 8GL]	4.d 4.g 4.b	.
!	!	!LO:DY:b=2
8GG	.	sfp
8GG	.	.
!	!	!LO:DY:b=2
8GG 8AA-J	8r	sfp
8FF 8AA-L	4r	.
!	!	!LO:DY:b=2
8FF 8GG	.	sfp
*	*clefF4	*
*	*^	*
8FF 8GG	(4G	8rBB	.
8EE- 8GGJ	.	8C	p
*	*v	*v	*
=14	=14	=14
*^	*	*
8GGL	(4EE-	4C 4F# 4A	.
8GG	.	.	.
8GG	4DD	4D 4F 4B	.
8GGJ	.	.	.
8GGL	4CC)	4E- 4G 4c)	.
8GG	.	.	.
8GG	(8..FFF#L	8..E- 8..A (8..cL	.
[8GGJ	.	.	.
.	32GGGJkk)	32D 32G 32BJkk)	.
!!LO:LB:g=original
=15	=15	=15	=15
*ped	*	*	*
8GGL]	2GGG	2D 2G 2B	.
8GG	.	.	.
8GG	.	.	.
8GGJ	.	.	.
8GGL	2GGG	4..D 4..G 4..B	.
8GG	.	.	.
8GG	.	.	.
8GGJ	.	.	.
*Xped	*	*	*
.	.	16D 16G 16B	.
*v	*v	*	*
=16	=16	=16
32GGGLLL	1D 1G 1B	pp
32AAA-	.	.
32GGG	.	.
32AAA-	.	.
32GGG	.	.
32AAA-	.	.
32GGG	.	.
32AAA-JJJ	.	.
32GGGLLL	.	.
32AAA-	.	.
32GGG	.	.
32AAA-	.	.
32GGG	.	.
32AAA-	.	.
32GGG	.	.
32AAA-JJJ	.	.
32GGGLLL	.	.
32AAA-	.	.
32GGG	.	.
32AAA-	.	.
32GGG	.	.
32AAA-	.	.
32GGG	.	.
32AAA-JJJ	.	.
32GGGLLL	.	.
32AAA-	.	.
32GGG	.	.
32AAA-	.	.
32GGG	.	.
32AAA-	.	.
32GGG	.	.
32AAA-JJJ	.	.
!!LO:LB:g=original
=17	=17	=17
!!!OMD: Allegro con brio ed appassionato
*MM120	*MM120	*MM120
16GGGLL	1D 1G 1B 1d	.
16AAA-	.	.
16GGG	.	.
16AAA-JJ	.	.
16GGGLL	.	.
16AAA-	.	.
16GGG	.	.
16AAA-JJ	.	.
16GGGLL	.	.
16AAA-	.	.
16GGG	.	.
16AAA-JJ	.	.
16GGGLL	.	.
16AAA-	.	.
16GGG	.	.
16AAA-JJ	.	.
*	*clefG2	*
=18	=18	=18
16GGGLL	16G 16B 16d 16gLL	.
*	*clefF4	*
16AAA-	16AA-	.
16GGG	16GG	.
16AAA-JJ	16AA-JJ	.
16GGGLL	16GGLL	.
16AAA-	16AA-	.
16GGG	16GG	.
16AAA-JJ	16AA-JJ	.
16GGGLL	16GGLL	.
16AAA-	16AA-	.
16GGG	16GG	.
16AAA-JJ	16AA-JJ	.
16GGGLL	16GGLL	.
16AAA-	16AA-	.
(16GGG	(16GG	.
32AAAL	32AAL	.
32BBBJJJ)	32BBJJJ)	.
!!LO:LB:g=original
=19!|:	=19!|:	=19!|:
*>B	*>B	*>B
4CC'	4C'	f
4r	4r	.
4r	4r	.
8r	8r	.
(24GGGLL	(24GGLL	ff
24AAA	24AA	.
24BBBJJ)	24BBJJ)	.
=20	=20	=20
4CC'	4C'	.
4EE-'	4E-'	.
4.BBB;	4.BB;	.
(24GGGLL	(24GGLL	.
24AAA	24AA	.
24BBBJJ)	24BBJJ)	.
=21	=21	=21
4CC'	4C'	.
4EE-'	4E-'	.
4.BBB	4.BB	sf
8AA-X	8A-X'	.
=22	=22	=22
8GG'L	8G'L	.
8FF'	8F'	.
8EE-'	8E-'	.
8DD'J	8D'J	.
16EE-LL	16E-LL	.
16FF	16F	.
16EE-	16E-	.
16DDJJ	16DJJ	.
(8CCL	(8CL	.
8AA-'J	8A-'J	.
!!LO:LB:g=original
=23	=23	=23
!!LO:TX:a:B:t=Poco rit.
8GG'L	8G'L	mp
8FF'	8F'	.
8EE-'	8E-'	.
8DD'J)	8D'J)	.
(16EE-LL	(16E-LL	.
16FF	16F	.
16EE-	16E-	.
16DDJJ	16DJJ	.
!!LO:TX:a:B:t=a Tempo
16CCLL)	16CLL)	.
16AA-	16A-	.
16BB-	16B-	.
16AA-JJ	16A-JJ	.
=24	=24	=24
16GGLL	16GLL	<
16AA-	16A-	.
16GG	16G	.
16FFJJ	16FJJ	.
16EE-LL	16E-LL	.
16FF	16F	.
16EE-	16E-	.
16DDJJ	16DJJ	.
16EE-LL	16E-LL	.
16FF	16F	.
16EE-	16E-	.
16DDJJ	16DJJ	.
16CCLL	16CLL	.
16GG	16G	.
16FF	16F	.
16EE-JJ	16E-JJ	.
=25	=25	=25
16FFLL	16FLL	.
16GG	16G	.
16FF	16F	.
16EE-JJ	16E-JJ	.
16DDLL	16DLL	.
16AA-	16A-	.
16GG	16G	.
16FFJJ	16FJJ	.
16GGLL	16GLL	.
16AA-	16A-	.
16GG	16G	.
16FFJJ	16FJJ	.
16EELL	16ELL	.
16BB-	16B-	.
16AA-	16A-	.
16GGJJ	16GJJ	.
!!LO:LB:g=original
=26	=26	=26
16AA-LL	16A-LL	.
16C	16c	.
16GG	16G	.
16CJJ	16cJJ	.
16FFLL	16FLL	.
16C	16c	.
16FF#	16F#	.
16CJJ	16cJJ	.
16BBLL	16BLL	.
16AA	16A	.
16GG	16G	.
16DJJ	16dJJ	.
*	*clefG2	*
16CLL	16cLL	sf
16BB	16Bn	.
16Fn	16fn	.
16E-XJJ	16e-XJJ	.
=27	=27	=27
16DLL	16dLL	sf
16A-X	16a-X	.
16G	16g	.
16FJJ	16fJJ	.
*clefG2	*	*
16dLL	16ddLL	sf
16c	16cc	.
16B	16b	.
16fJJ	16ffJJ	.
16e-LL	16ee-LL	sf
16d	16dd	.
16a-	16aa-	.
16gJJ	16ggJJ	.
16fLL	16ffLL	sf
16dd	16ddd	.
16cc	16ccc	.
16bJJ	16bbJJ	.
=28	=28	=28
*	*8va	*
16ffLL	16fffLL	sf
16ee-	16eee-	>
16dd	16ddd	.
16aa-JJ	16aaa-JJ	.
16ggLL	16gggLL	.
16ff	16fff	.
16ee-	16eee-	.
16ddJJ	16dddJJ	.
*	*X8va	*
16ccLL	16cccLL	.
16b	16bb	.
16a-	16aa-	.
16gJJ	16ggJJ	.
16fLL	16ffLL	.
16e-	16ee-	.
16d	16dd	.
16gJJ	16ggJJ	]]
!!LO:LB:g=original
=29	=29	=29
*	*^	*
4c	4cc'	8e- 8gL	.
.	.	8e- 8g	.
*clefF4	*	*	*
4CC 4C	4ee-'	8e- 8g	.
.	.	8e- 8gJ	.
4r	4.b	8f 8gL	.
.	.	8f 8g	.
4GGG 4GG	.	8f 8g	.
.	8aa-	8f 8gJ	.
=30	=30	=30	=30
8r	8ggL	8f 8gL	.
8G 8dL	8ff	8f 8g	.
8G 8c	8ee-	8f 8g	.
8G 8BJ	8ddJ	8f 8gJ	.
4r	16ee-LL	4r	.
.	16ff	.	.
.	16ee-	.	.
.	16ddJJ	.	.
!!LO:TX:a:B:t=Poco rit.
8c 8e-L	8ccL	8gL	.
8G 8fJ	(8aa-'J	8gJ	.
=31	=31	=31	=31
8G 8e-L	8gg'L	8gL	.
8G 8d	8ff'	8g 8b	.
8G 8c	8ee-'	8g 8cc	.
8G 8BJ	8dd'J)	8gJ	.
8r	(16ee-LL	8r	.
.	16ff	.	.
[8c [8e-	16ee-	[8g	.
.	16ddJJ	.	.
8c] 8e-]	8cc)	8g]	.
!!LO:TX:a:B:t=a Tempo
[8GGG [8GG	(8aaa-	16fffLL	.
.	.	16aa-JJ	.
=32	=32	=32	=32
8GGG] 8GGL]	8gggL	16eee-LL	<
.	.	16gg	.
8GGG 8GG	8fff	16ddd	.
.	.	16ggJJ	.
8AAA 8AA	8eee-	16cccLL	.
.	.	16gg	.
8BBB 8BBJ	8dddJ)	16ddd	.
.	.	16ff 16ggJJ	.
8CC 8CL	(8eee-L	16eee-LL	.
.	.	16gg	.
8BBB 8BB	8ddd	16ddd	.
.	.	16ggJJ	.
8CC 8C	8ccc	16cccLL	.
.	.	16gg	.
8DD 8DJ	8bbJ)	16bb	.
.	.	16ggJJ	.
!!LO:LB:g=original
=33	=33	=33	=33
8EE- 8E-L	(8cccL	16ggLL	.
.	.	16cc	.
8EE 8E	8bb-X	16gg	.
.	.	16ccJJ	.
8FF 8F	8aa-	16aa-LL	.
.	.	16cc	.
8EE 8EJ	8ggJ)	16gg	.
.	.	16ccJJ	.
8FF 8F	(8aa-L	16aa-LL	.
.	.	16cc	.
4A- 4c 4f	8ff	16ff	rfz
.	.	16ccJJ	.
.	8ee-X	16ee-XLL	.
.	.	16cc	.
8A- 8c 8f	8ddJ)	16dd	.
.	.	16ccJJ	.
=34	=34	=34	=34
*^	*	*	*
!!LO:TX:a:i:t=espress.
!!LO:TX:a:B:t=Poco rit.
4c	4A-	(8ddL	4f	.
.	.	8ccJ)	.	.
!	!	!	!	!LO:DY:rj
2e-X	(4A-	2cc	(4f#	p
.	4G	.	4g	<
4e-	4F#)	4cc	4a)	[
*v	*v	*	*	*
=35	=35	=35	=35
4G 4e-	4ccT	4g	.
*	*v	*v	*
.	(<16qbLL	.
.	16qccJJ	.
*	*^	*
[4G 4B 4f	(8ee-L)	4g	.
.	8ddJ)	.	.
!!LO:TX:a:B:t=a Tempo
!	!	!	!LO:DY:rj
16GLL]	4cc	4c'	f
16F	.	.	.
16E-	.	.	.
16DJJ	.	.	.
16CLL	4r	4e-'	.
16D	.	.	.
16E-	.	.	.
16CJJ	.	.	.
*	*v	*v	*
=36	=36	=36
16DLL	[4B	sf
16C	.	.
16BB	.	.
16AAJJ	.	.
16GGLL	16BLL]	.
16BB	16d	.
16D	16f	.
16FJJ	16a-JJ	.
8E-L	16gLL	.
.	16a-	.
(8GGG 8GG	16g	.
.	16fJJ	.
8CC 8C	16e-LL	.
.	16f	.
8BBB 8BBJ	16e-	.
.	16dJJ	.
!!LO:LB:g=original
=37	=37	=37
8CC 8CL	16e-LL	.
.	16f	.
8FF) 8F	16e-	.
.	16dJJ	.
8EE-' 8E-'	16cLL	.
.	16e-	.
8CC' 8C'J	16g	.
.	16b-XJJ	.
8r	16a-LL	.
.	16b-	.
(8CC 8CL	16a-	.
.	16gJJ	.
8DD 8D	16fLL	.
.	16g	.
8CC 8CJ	16f	.
.	16e-JJ	.
=38	=38	=38
8DD 8DL	16fLL	.
.	16g	.
8GG) 8G	16f	.
.	16e-JJ	.
8FF' 8F'	16dLL	.
.	16f	.
8EE-' 8E-'J	16a-	.
.	16ccJJ	.
8DD' 8D'L	16b-LL>	.
.	16cc	.
8BBB-X' 8BB-X'	16b-	.
.	16a-JJ	.
8CC' 8C'	16gLL	.
.	16a-	.
8DD' 8D'J	16g	.
.	16fJJ	.
=39	=39	=39
4EE-' 4E-'	16gLL	f
.	16b-	.
.	16a-	.
.	16gJJ	.
4GG 4G	16fLL	.
.	16e-	.
.	16d	.
.	16e-JJ	.
8DD 8DL	16fLL	.
.	16c-	.
[8DDJz	16B-	.
.	16c-JJ	.
16DDLL]	16B-LL	.
16FF	16d	.
16AA-	16f	.
16CnJJ	16a-JJ	.
!!LO:LB:g=original
=40	=40	=40
16BB-LL	(8gL	.
16C	.	.
16BB-	8F 8f	.
16AA-JJ	.	.
16GGLL	8B- 8b-	.
16AA-	.	.
16GG	8A- 8a-J	.
16FFJJ	.	.
16GGLL	8B- 8b-L	.
16AA-	.	.
16GG	8d-) 8dd-	.
16FFJJ	.	.
16EELL	8c' 8cc'	.
16GG	.	.
16BB-	8G' 8g'J	.
16D-JJ	.	.
=41	=41	=41
16CLL	8r	.
16D-	.	.
16C	(8G 8gL	.
16BB-JJ	.	.
16AA-LL	8c 8cc	.
16BB-	.	.
16AA-	8B- 8b-J	.
16GGJJ	.	.
16AA-LL	8c 8ccL	.
16BB-	.	.
16AA-	8e-) 8ee-	.
16GG-JJ	.	.
16FFLL	8e-' 8ee-'	.
16AA	.	.
16C	8A' 8a'J	.
16E-JJ	.	.
=42	=42	=42
16D-LL>	8r	.
16E-	.	.
16D-	(8B- 8b-L	.
16CJJ	.	.
16BB-LL	8d- 8dd-	.
16C	.	.
16BB-	8c 8ccJ	.
16AAJJ	.	.
16BB-LL	8d- 8dd-L	.
16C	.	.
16BB-	8f) 8ff	.
16AA-JJ	.	.
16GGnLL	8e-' 8ee-'J	.
16BB-	.	.
16D-	16b-LL	.
16FJJ	16a-XJJ	.
!!LO:LB:g=original
=43	=43	=43
16E-LL	16gLL	.
16F	16e-	.
16E-	16f	.
16D-JJ	16gJJ	.
16CLL	16a-LL	.
16D-	16g	.
16C	16a-	.
16BB-JJ	16b-JJ	.
*	*^	*
4AA-	4aa-'	16ccLL	.
.	.	16dd-	.
.	.	16cc	.
.	.	16b-JJ	.
*clefG2	*	*	*
4ryy	4ccc'>/	16a-<LL	.
.	.	16cc<	.
.	.	16b-<	.
.	.	16a-<JJ	.
*	*v	*v	*
=44||	=44||	=44||
*k[b-e-a-d-]	*k[b-e-a-d-]	*k[b-e-a-d-]
16b-LL	[4gg	.
16a-	.	.
16g	.	.
16fJJ	.	.
16e-LL	16ggLL]	.
16g	16bb-	.
16b-	16ddd-	.
16dd-JJ	16fffJJ	.
*	*8va	*
8ccL	16eee-LL	.
.	16fff	.
(8G 8g	16eee-	.
.	16ddd-JJ	.
8A- 8a-	16cccLL	.
.	16ddd-	.
8G 8gJ	16ccc	.
.	16bb-JJ	.
=45	=45	=45
8A- 8a-L	16cccLL	.
.	16ddd-	.
8d-) 8dd-	16ccc	.
.	16bb-JJ	.
8c' 8cc'	16aaLL	.
.	16ccc	.
8A' 8a'J	16eee-	.
.	16ggg-JJ	.
8r	16fffLL	.
.	16ggg-	.
(8A 8aL	16fff	.
.	16eee-JJ	.
8B- 8b-	16ddd-LL	.
.	16eee-	.
8A 8aJ	16ddd-	.
.	16cccJJ	.
!!LO:LB:g=original
=46	=46	=46
8B- 8b-L	16ddd-LL	.
.	16eee-	.
8e-) 8ee-	16ddd-	.
.	16cccJJ	.
8d-' 8dd-'	16bb-LL	.
.	16ddd-	.
8B-' 8b-'J	16fff	.
.	16aaa-XJJ	.
8r	16ggg-LL	.
.	16aaa-	.
(8B- 8b-L	16ggg-	.
.	16fffJJ	.
8c 8cc	16eee-LL	.
.	16fff	.
8B- 8b-J	16eee-	.
.	16ddd-JJ	.
=47	=47	=47
8c 8ccL	16eee-LL	.
.	16fff	.
8f) 8ff	16eee-	.
.	16ddd-JJ	.
8e-' 8ee-'	16cccLL	.
.	16eee-	.
8c' 8cc'J	16ggg-	.
.	16bbb-JJ	.
8r	16aaa-LL	.
.	16bbb-	.
*clefF4	*	*
8AAA- 8AA-L	16aaa-	.
.	16ggg-JJ	.
8BBB- 8BB-	16fffLL	.
.	16ggg-	.
8CC 8CJ	16fff	.
.	16eee-JJ	.
=48	=48	=48
*ped	*	*
16D- 16FLL	2fff	ff
*	*X8va	*
16A-	.	.
16D- 16F	.	.
16A-JJ	.	.
16D- 16FLL	.	.
16A-	.	.
16D- 16F	.	.
16A-JJ	.	.
*	*clefF4	*
16D- 16FLL	2DD-	sf
16A-	.	.
16D- 16F	.	.
16A-JJ	.	.
16D- 16FLL	.	.
16A-	.	.
16D- 16F	.	.
*Xped	*	*
16A-JJ	.	.
!!LO:LB:g=original
=49	=49	=49
*ped	*	*
16D 16F 16A-LL	2DD	sf
16c-	.	.
16D 16F 16A-	.	.
16c-JJ	.	.
16D 16F 16A-LL	.	.
16c-	.	.
16D 16F 16A-	.	.
16c-JJ	.	.
*	*clefG2	*
*	*8va	*
16D 16F 16A-LL	2cccc-	sf
*	*X8va	*
16c-	.	.
16D 16F 16A-	.	.
16c-JJ	.	.
16D 16F 16A-LL	.	.
16c-	.	.
16D 16F 16A-	.	.
*Xped	*	*
16c-JJ	.	.
=50	=50	=50
*ped	*	*
4EE- 4E-	4r	.
4r	(2eee-	sf >
4r	.	.
8.r	8.cccnL	.
*Xped	*	*
16E- 16cn 16e-	16aa-Jk)	.
=51	=51	=51
4.E- 4.B- 4.d-	(4aa-	.
.	8ggnL)	] p
16r	16rff	.
16E- 16A- 16c	16ffJk	.
4E- 4A- (4c	(4ff	.
8E- 8G 8B-L)	8ee-L)	.
16r	16rdd	.
16E- 16G 16B-Jk	16dd- 16gg 16ddd-Jk	.
=52	=52	=52
4E- 4G (4B-	4dd- 4gg (4ddd-	.
!!LO:TX:a:B:t=Meno allegro
4E- 4A- 4c)	[4cc [4aa- [4ccc)	.
*MM60	*MM60	*MM60
4r	48cc] 48aa-] (48cccLLL]	.
.	48eee-	.
.	48ddd	.
.	48eee-	.
.	48fff	.
.	48eee-	.
.	48bb	.
.	48ccc	.
.	48bb	.
.	48ccc	.
.	48ddd-	.
.	48cccJJJ)	.
4r	(24ggLL	.
.	24aa-	.
.	24bb-	.
.	24aa-	.
.	24gg	.
.	24aa-JJ)	.
!!LO:LB:g=original
=53	=53	=53
!!LO:TX:a:B:t=Ritard
4.E- 4.B- 4.d-	(20aa-LL	.
.	20gg	.
.	20aa-	.
.	20bb-	.
.	20aa-JJ	.
.	8ggL)	.
16r	16rff	.
16E- 16A- 16c	16ffJk	.
4.E- 4.G 4.B-	(20ffLL	.
.	20ee-	.
.	20ff	.
.	20gg	.
.	20ffJJ	.
.	8ee-L)	.
16r	16r	.
16E 16G 16B-	16dd- 16gg 16ddd-Jk	.
=54	=54	=54
4E 4G (4B-	4dd- 4gg (4ddd-	.
4F 4A-)	4cc 4aa- 4ccc)	.
4r	4r	.
8.r	8.r	.
*MM50	*MM50	*MM50
*clefG2	*	*
!!LO:TX:a:B:t=Adagio
16d- 16g 16b-	16gg 16bb- 16fff	.
=55	=55	=55
(4d- 4g 4b-	4gg 4bb- (4fff	.
4c) 4a- 4cc	4ee- 4aa- 4eee-)	.
4r	4r	.
8r	8r	.
*MM120	*MM120	*MM120
*	*8va	*
!!LO:TX:a:B:t=Tempo 1o
8d 8f 8a- 8cc-	16aaa-LL	ff
.	16cccc-JJ	.
=56	=56	=56
8d 8f 8a- 8cc-	(16aaa-LL	.
.	16cccc-)	.
(16ffLL	(16fff	.
16aa-JJ)	16aaa-JJ)	.
(16ddLL	(16dddLL	.
16ff)	16fff)	.
(16cc-	(16ccc-	.
16ddJJ)	16dddJJ)	.
*	*X8va	*
(16a-LL<	(16aa-LL	.
16cc-)	16ccc-)	.
(16f	(16ff	.
16a-JJ)	16aa-JJ)	.
*clefF4	*	*
(16dLL	(16ddLL	.
16f)	16ff)	.
(16c-	(16cc-	.
16dJJ)	16ddJJ)	.
!!LO:LB:g=original
=57	=57	=57
(16A-LL	(16a-LL	.
16c-)	16cc-)	.
(16F	(16f	.
16A-JJ)	16a-JJ)	.
!!LO:TX:a:i:t=non legato
16DLL	16dLL	p
16E-	16e-	<
16F	16f	.
16GJJ	16gJJ	.
16A-LL	16a-LL	.
16B-	16b-	.
16c	16cc	.
16d-XJJ	16dd-XJJ	.
16e-LL	16ee-LL	.
16e	16ee	.
16f	16ff	.
16e-JJ	16ee-JJ	.
=58	=58	=58
4AAA-' 4AA-'	16ffLL	ff
.	16ee-	.
.	16cc	.
.	16a-JJ	.
4CC' 4C'	16ffLL	.
.	16ee-	.
.	16cc	.
.	16a-JJ	.
2GGG 2GG	16ffLL	sf
.	16ee-	.
.	16dd-	.
.	16b-JJ	.
.	16ffLL	.
.	16ee-	.
.	16dd-	.
.	16b-JJ	.
=59	=59	=59
4GGG-' 4GG-'	16bb-LL	.
.	16aa-	.
.	16ee-	.
.	16ccJJ	.
4AAA-' 4AA-'	16bb-LL	.
.	16aa-	.
.	16ee-	.
.	16ccJJ	.
2FFF 2FF	16bb-LL	sf
.	16aa-	.
.	16ff	.
.	16dd-JJ	.
.	16eee-LL	.
.	16ddd-	.
.	16aa-	.
.	16dd-JJ	.
!!LO:LB:g=original
=60	=60	=60
4FFF-' 4FF-'	16eee-LL	.
.	16ddd-	.
.	16aa-	.
.	16dd-JJ	.
4AAA-' 4AA-'	16eee-LL	.
.	16ddd-	.
.	16aa-	.
.	16dd-JJ	.
(4EEE- 4EE-	16ddd-LL	sf
.	16ccc	.
.	16aa-	.
.	16ee-JJ	.
8.AAA-) 8.AA-L	16ddd-LL	.
.	16ccc	.
.	16aa-	.
16CC 16CJk	16ee-JJ	.
=61	=61	=61
*	*^	*
4EE-' 4E-'	2ryy	16ddd-LL	.
.	.	16ccc	.
.	.	16aa-	.
.	.	16ee-JJ	.
4EEE-' 4EE-'	.	16cccLL	.
.	.	16bb-	.
.	.	16gg	.
.	.	16dd-JJ	.
16r	4aa-'	8cc 8ee-L	.
16cLL	.	.	.
16B-	.	8cc 8ee-	.
16A-JJ	.	.	.
16GLL	4ccc'	8cc 8ee-	.
16A-	.	.	.
16B-	.	8cc 8ee-J	.
16A-JJ	.	.	.
*clefG2	*	*	*
=62	=62	=62	=62
!	!LO:DY:rj	!	!
16r	2ggz	8b- 8ee-L	.
16gLL	.	.	.
16f	.	8b- 8ee-	.
16e-JJ	.	.	.
16dLL	.	8b- 8ee-	.
16e-	.	.	.
16f	.	8b- 8ee-J	.
16e-JJ	.	.	.
*clefF4	*	*	*
16r	4gg-'	8a- 8ee-L	.
16E-LL>	.	.	.
16D-X	.	8a- 8ee-	.
16CJJ	.	.	.
16BBLL	4aa-'	8a- 8ee-	.
16C	.	.	.
16D-	.	8a- 8ee-J	.
16CJJ	.	.	.
!!LO:LB:g=original
=63	=63	=63	=63
!	!LO:DY:rj	!	!
16r	2ffz	8a- 8dd-L	.
16fLL	.	.	.
16e-	.	8a- 8dd-	.
16d-JJ	.	.	.
16cLL	.	8a- 8dd-	.
16d-	.	.	.
16e-	.	8a- 8dd-J	.
16d-JJ	.	.	.
16r	4ff-'	8a- 8dd-L	.
16DD-LL	.	.	.
16EE-	.	8a- 8dd-	.
16FF-JJ	.	.	.
16EE-LL	4aa-'	8a- 8dd-	.
16DD-	.	.	.
16CC	.	8a- 8dd-J	.
16DD-JJ	.	.	.
*	*v	*v	*
=64	=64	=64
16DDLL	4a- 4cc (4ee-	sf
16EE-	.	.
16FFn	.	.
16EE-JJ	.	.
16DD-LL	8.a- 8.aa-L	.
16CC	.	.
16BBB-	.	.
16AAA-JJ	16cc 16cccJk	.
16GGGLL	8ee- 8eee-L)	.
16AAA-	.	.
*	*8va	*
16BBB-	8eee-'J	.
16CCJJ	.	.
16DD-LL	(8.eee-TL	.
16CC	.	.
16DD-	.	.
16BBBJJ	32ddd-LL	.
.	32eee-JJJ)	.
=65	=65	=65
16CCLL	(8eee-L	.
16DD-	.	.
16EE-	16fffL	.
16DD-JJ	16gggJJ)	.
16CCLL	(8gggL	>
16BBB	.	.
16CC	8aaa-J)	]
*	*X8va	*
16AAA-JJ	.	.
16GGGLL	8r	.
16AAA-	.	.
16BBB-	8ee-'	.
16CCJJ	.	.
16DD-LL	(8.ee-TL	.
16CC	.	.
16DD-	.	.
16BBBJJ	32ddLL	.
.	32ee-JJJ)	.
!!LO:LB:g=original
=66	=66	=66
16CCLL	(8ee-L	.
16DD-	.	.
16EE-	16ffL	.
16DD-JJ	16ggJJ)	.
16CCLL	(8ggL	>
16BBB	.	.
16CC	8aa-J)	]
16AAA-JJ	.	.
16GGGLL	8r	.
16AAA-	.	.
16BBB-	8e-'	.
16CCJJ	.	.
16DD-LL	(8e-TL	.
16EE-	.	.
16FF	16fL	.
16GGJJ	16gJJ)	.
=67	=67	=67
16AA-LL	16a-LL	sf
16BB-	16b-	.
16C	16cc	.
16BBJJ	16bJJ	.
16CLL	16ccLL	sf
16D-	16dd-	.
16E--	16ee--	.
16D-JJ	16dd-JJ	.
16E--LL	16ee--LL	sf
16E-	16ee-	.
16F-	16ff-	.
16E-JJ	16ee-JJ	.
16F-LL	16ff-LL	sf
16F	16ff	.
16G-	16gg-	.
16GJJ	16ggJJ	.
=68	=68	=68
16A-LL	16aa-LL	sf
16B-X	16bb-X	.
16c	16ccc	.
16BJJ	16bbJJ	.
*	*8va	*
16cLL	16cccLL	sf
16d-	16ddd-	.
16e--	16eee--	.
16d-JJ	16ddd-JJ	.
16e--LL	16eee--LL	sf
16e-	16eee-	.
16f-	16fff-	.
16e-JJ	16eee-JJ	.
*clefG2	*	*
16f-XLL	16fff-LL	sf
16f	16fff	.
16g-	16ggg-	.
16gJJ	16gggJJ	.
*	*X8va	*
!!LO:LB:g=original
=69	=69	=69
*>B1	*>B1	*>B1
*	*8va	*
4a-'	4aa- 4aaa-	ff
*	*X8va	*
*clefF4	*	*
4AAA-' 4AA-'	4r	.
4r	4A-' 4a-'	.
*	*clefF4	*
8r	8r	.
(24GGGLL	(24GGLL	.
24AAA	24AA	.
24BBBJJ)	24BBJJ)	.
=70:|!	=70:|!	=70:|!
*>B2	*>B2	*>B2
*clefG2	*clefG2	*
*	*8va	*
4a-	4aa- 4aaa-	ff
*	*X8va	*
*clefF4	*	*
4AAA-' 4AA-'	4A-' 4a-'	.
2r	2r	.
=71	=71	=71
4r	4r	.
4GGG 4GG	4G 4g	.
2r	2r	.
!!Xignore
=72||	=72||	=72||
*>C	*>C	*>C
*k[b-e-]	*k[b-e-]	*k[b-e-]
4r	8r	.
.	(24aLL>	<
.	24b	.
.	24cc#JJ)	[ f
4FFF#' 4FF#'	4d' 4a' 4dd'	.
2r	2r	.
=73	=73	=73
4r	4r	.
8r	8r	.
(24DDLL	(24dLL	p
24EE	24e	.
24FF#JJ)	24f#JJ)	.
4GGG' 4GG'	4G' 4g'	.
4BBB-' 4BB-'	4B-X' 4b-X'	.
=74	=74	=74
2FFF# 2FF#	2f# 2F#<	.
4FFF'< 4FF'<	4fn' 4Fn<'	.
4AAA-'< 4AA-'<	4a-' 4A-<'	.
=75	=75	=75
2EEE 2EE	2en 2En<	.
4EEE-'< 4EE-'<	4e-' 4E-<'	.
4GGG'< 4GG'<	4g' 4G<'	.
!!LO:LB:g=original
=76	=76	=76
((4DDD 4DD	(>4d 4D<	.
8.GGG 8.GGL))	8.G 8.gL)	.
16BBB- 16BB-Jk	16B- 16b-Jk	.
4DD' 4D'	4d' 4dd'	.
4CC' 4C'	4F#' 4A' 4d'	.
=77	=77	=77
4BBB 4BB	(2d	.
4GGG 4GG	.	.
4G'	2e-	.
4c'	.	.
=78	=78	=78
(4.F#	2A)	.
8e-)	.	.
*^	*	*
8dL	4r	2f#tt	.
8c	.	.	.
8B-X	4D	.	.
8AnJ	.	.	.
.	.	(16qenLL	.
.	.	16qf#JJ)	.
=79	=79	=79	=79
4B	(2G	16gLL	.
.	.	16d	.
.	.	16e-X	.
.	.	16fnJJ	.
4rc	.	16gLL	.
.	.	16f	.
.	.	16e-	.
.	.	16dJJ	.
2rc	2A-	4c'	.
.	.	4e-'	.
*v	*v	*	*
=80	=80	=80
2D)	(4.B	.
.	8a-)	.
2Btt	8gL	.
.	8f	.
.	8e-	.
.	8dJ	.
(16qALL	.	.
16qBJJ)	.	.
!!LO:LB:g=original
=81	=81	=81
*	*^	*
4c	(2cc	16enLL	.
.	.	16f	.
.	.	16e	.
.	.	16d-JJ	.
16r	.	16cLL	.
16B-LL	.	16g	.
16A-	.	16f	.
16GJJ	.	16eJJ	.
4A-'	2dd-	4f'	.
4F'	.	4a-'	.
=82	=82	=82	=82
4B-	2g	(4.e	.
4G	.	.	.
.	.	8dd-)	.
4c	(2eett)	8ccL	.
.	.	8b-	.
4C\	.	8a-	.
.	.	8gJ	.
.	(16qddnLL	.	.
.	16qeeJJ)	.	.
=83	=83	=83	=83
2F	8ff)	16a-LL	.
.	.	16b-	.
.	8ryy	16a-	.
.	.	16gJJ	.
*	*v	*v	*
.	16fLL<	.
.	16a-	.
.	16dd-	.
.	16bJJ	.
2Ett	16ccLL	.
.	16b	.
.	16cc	.
.	16b-JJ	.
.	16ccLL<	.
.	16a-	.
.	16cc	.
.	16gJJ	.
(16qDnLL	.	.
16qEJJ)	.	.
=84	=84	=84
*^	*	*
4F	2FF	16A- 16a-LL	.
.	.	16B-	.
.	.	16A-	.
.	.	16GJJ	.
4ryy	.	16FLL	.
.	.	16A-	.
.	.	16d-	.
.	.	16BJJ	.
*v	*v	*	*
2EEtt	16cLL	.
.	16B	.
.	16c	.
.	16B-JJ	.
.	16cLL	.
.	16A-	.
.	16c	.
.	16GJJ	.
(16qDDnLL	.	.
16qEEJJ)	.	.
!!LO:LB:g=original
=85	=85	=85
8FFL	16cLL	<
.	16A-	.
8EE-X	16c	.
.	16GJJ	.
8DDn	16BLL	.
.	16F	.
8CCJ	16c	.
.	16E-JJ	.
8BBBL	16dnLL	.
.	16G	.
8BBB-	16e	.
.	16cJJ	.
8AAAn	16fLL	.
.	16c	.
8AAA-J	16f# 16cc	.
.	16e-JJ	.
=86	=86	=86
8GGGL	16g 16ccLL	<
.	16e-	.
[8FFF#	16an 16cc 16ee-	.
.	16e-JJ	.
8FFF#]	16a 16cc 16ee-LL	.
.	16e-	.
[8FFF# [8FF#J	16a 16cc 16ee-	.
.	16e-JJ	.
8FFF#] 8FF#]	16a 16cc 16ee-LL	.
.	16e-	.
4FFF# 4FF#	16a 16cc 16ee-	.
.	16e-JJ	.
.	16a 16cc 16ee-LL	.
.	16e-	.
8FFF# 8FF#	16e- 16a 16cc	.
.	16cJJ	[
=87	=87	=87
16r	4B' 4d' 4g'	f
16GGGLL	.	.
16AAA	.	.
16BBBJJ	.	.
16r	4B' 4d' 4g' 4b'	.
16GGLL	.	.
16AAn	.	.
16BBJJ	.	.
16r	2An 2c 2e- 2f#	sf
16GGGLL	.	.
16CC	.	.
16EE-JJ	.	.
16FF#LL	.	.
16AA	.	.
16C	.	.
16E-JJ	.	.
!!LO:LB:g=original
=88||	=88||	=88||
*k[b-e-a-]	*k[b-e-a-]	*k[b-e-a-]
*	*^	*
16r	4f#' 4a' 4cc'	4e-	.
16GGGLL	.	.	.
16CC	.	.	.
16EE-JJ	.	.	.
16r	4f#' 4a' 4ee-'	4e-	.
16GGLL	.	.	.
16C	.	.	.
16E-JJ	.	.	.
16r	2b	2d 2f 2a-	sf
16GGGLL	.	.	.
16DD	.	.	.
16FFnJJ	.	.	.
16GGLL	.	.	.
16BB	.	.	.
16D	.	.	.
16FJJ	.	.	.
=89	=89	=89	=89
16r	4ff'	4a- 4b 4dd	.
16GGGLL	.	.	.
16DD	.	.	.
16FFJJ	.	.	.
16r	4ff' 4aa-'	4b 4dd	.
16GGLL	.	.	.
16D	.	.	.
16FJJ	.	.	.
16r	2ee	2g 2b- 2dd-	sf
16GGGLL	.	.	.
16GG	.	.	.
16BB-XJJ	.	.	.
16D-LL	.	.	.
16E	.	.	.
16G	.	.	.
16B-JJ	.	.	.
=90	=90	=90	=90
16r	4ee' 4gg'	4b- 4dd-	.
16GGGLL	.	.	.
16GG	.	.	.
16BB-JJ	.	.	.
16r	4ee' 4bb-'	4b- 4dd-	.
16GGLL	.	.	.
16G	.	.	.
16B-JJ	.	.	.
16r	2ff#	2a 2cc 2ee-	sf
16GGGLL	.	.	.
16AA	.	.	.
16CJJ	.	.	.
16E-LL	.	.	.
16F#	.	.	.
16A	.	.	.
16cJJ	.	.	.
!!LO:LB:g=original
=91	=91	=91	=91
16r	4ff#' 4aa' 4ccc'	4ee-	.
16GGGLL	.	.	.
16AA	.	.	.
16CJJ	.	.	.
16r	4ff#' 4aa' 4eee-'	4ee-	.
16F#LL	.	.	.
16A	.	.	.
16cJJ	.	.	.
16r	4bb	4.dd 4.ff 4.aa-	sf
16GGGLL	.	.	.
16BB	.	.	.
16DnJJ	.	.	.
16FLL	4ryy	.	.
16A-	.	.	.
*	*	*8va	*
16F	.	8aa- 8aaa-	.
16A-JJ	.	.	.
*	*v	*v	*
=92	=92	=92
16GLL	16gggLL	.
16A-	16aaa-	.
16G	16ggg	.
16FJJ	16fffJJ	.
16E-LL	16eee-LL	.
16F	16fff	.
16E-	16eee-	.
16DJJ	16dddJJ	.
16E-LL	16eee-LL	.
16F	16fff	.
16E-	16eee-	.
16DJJ	16dddJJ	.
*	*X8va	*
16CLL	16cccLL	.
16GG	16gg	.
16AA	16aa	.
16BBJJ	16bbJJ	.
=93	=93	=93
4CC' 4C'	4cc' 4ccc'	ff
4EE-' 4E-'	4ee-' 4eee-'	.
4.BBB 4.BB	4.b 4.bb	.
8AA-X/ 8A-X/	8aa-X 8aaa-X	.
!!LO:LB:g=original
=94	=94	=94
8GG 8GL	8gg 8gggL	.
8FF 8F	8ff 8fff	.
8EE- 8E-	8ee- 8eee-	.
8DD 8DJ	8dd 8dddJ	.
16EE-LL	16ee- 16eee-LL	.
16FF	16fff	.
16EE-	16eee-	.
16DDJJ	16dddJJ	.
8r	8cc 8ccc	.
8CC 8C	8ff 8gg 8aaa-	p
=95	=95	=95
!!LO:TX:a:B:t=Ritard
8G 8BL	8ff 8gg 8gggL	.
8G 8B	8ff 8gg 8fff	.
8G 8c	8ff 8gg 8eee-	.
8G 8BJ	8ff 8gg 8dddJ	.
*	*^	*
8r	16eee-LL	8r	.
.	16fff	.	.
[8C [8cL	16eee-	[8ee- [8ggL	.
.	16dddJJ	.	.
8C] 8cJ]	8ccc	8ee-] 8ggJ]	.
8r	8aa-	8f 8g	.
=96	=96	=96	=96
8GGG 8GGL	8ggL	8f 8gL	.
8GGG 8GG	(8ff'	8f 8g	.
8GGG 8AA	8ee-'	8f 8g	.
8GGG 8BBJ	8dd'J)	8f 8gJ	.
8r	16ee-LL	8rg	.
.	16ff	.	.
[8CC [8C	16ee-	[8e- [8g	.
.	16ddJJ	.	.
!!LO:TX:a:B:t=a Tempo
8CC] 8C]	8cc	8e-] 8g]	.
16r	8aa- 8aaa-	8ryy	<
16BBB 16BB	.	.	.
*	*v	*v	*
!!LO:LB:g=original
=97	=97	=97
16r	16gg 16gggLL	.
16BBB 16BBLL	16rff	.
16rD	16ff 16fffJJ	.
16BBB 16BBJJ	16r	.
16r	16ee- 16eee-LL	.
16BBB 16BBLL	16rff	.
16rD	16dd 16dddJJ	.
16BBB 16BBJJ	16r	.
16r	16ee- 16eee-LL	.
16CC 16CLL	16rff	.
16rD	16dd 16dddJJ	.
16DD 16DJJ	16r	.
16r	16cc 16cccLL	.
16EE- 16E-LL	16rdd	.
16rD	16b 16bbJJ	.
16DD 16DJJ	16r	.
=98	=98	=98
16r	16cc 16cccLL	.
16EE- 16E-LL	16r	.
16r	16b-X 16bb-XJJ	.
16EE 16EJJ	16r	.
16r	16a- 16aa-LL	.
16FF 16FLL	16r	.
16r	16g 16ggJJ	.
16EE 16EJJ	16r	.
16r	16a- 16aa-LL	.
16FF 16FLL	16r	.
16r	16g 16ggJJ	.
16GG 16GJJ	16r	.
16r	16f 16ffLL	.
16A- 16AA-LL	16r	.
16rF	16e- 16ee-JJ	.
16A- 16FJJ	16r	.
=99	=99	=99
*ped	*	*
16r	16d- 16dd-LL	.
16F 16A-LL	16r	.
16rF	16a- 16aa-JJ	.
16F 16A- 16d-JJ	16r	.
16r	16dd- 16ddd-LL	.
16F 16A- 16d-LL	16r	.
16rF	16ff 16fffJJ	.
16F 16A- 16d-JJ	16r	.
16r	16aa- 16aaa-LL	.
16F 16A- 16d-LL	16r	.
16rF	16a- 16aa-JJ	.
16F 16A-JJ	16r	.
16r	16f 16ffLL<	.
16F 16A- 16d-LL	16r	.
16rF	16d- 16dd-JJ	.
*Xped	*	*
16F 16A-JJ	16r	.
!!LO:LB:g=original
=100	=100	=100
!	!	!LO:HP:t=dim.
16r	16d- 16dd-LL	>
16F 16A-LL	16r	.
16r	16c 16ccJJ	.
16E 16GJJ	16r	.
16r	16c 16ccLL	.
16E 16GLL	16r	.
16r	16c 16ccJJ	.
16E 16GJJ	16r	.
!!LO:TX:a:i:t=espressivo
!!LO:TX:a:B:t=Poco rit.
8E 8G	8c 8cc	.
4EE	4c 4g 4dd-	.
(24CCLL	8c 8g 8b-	.
24DDn	.	.
24EEJJ)	.	.
=101	=101	=101
!!LO:TX:a:B:t=a Tempo
4FFF' 4FF'	16a-LL>	f
.	16cc	.
.	16b-	.
.	16a-JJ	.
4AAA-' 4AA-'	16gLL	.
.	16f	.
.	16e	.
.	16fJJ	.
[4EEE [4EE	16gLL	sf
.	16a-	.
.	16b-	.
.	16gJJ	.
16EEE] 16EELL]	(>16d-LL	.
16GG	16e	.
16BB-	16g	.
16D-JJ	[16b-JJ	.
=102	=102	=102
16CLL	8b-L]	.
16D-	.	.
16C	8E 8e	.
16BB-JJ	.	.
16AA-LL	8F 8f	.
16BB-	.	.
16AA-	8E 8eJ	.
16GGJJ	.	.
16AA-LL	8F 8fL	.
16BB-	.	.
16AA-	8B- 8b-)	.
16GGJJ	.	.
16FFLL	8A-'> 8a-'>	.
16AA-	.	.
16C	8F'> 8f'>J	.
16E-JJ	.	.
!!LO:LB:g=original
=103	=103	=103
16D-LL>	8r	.
16E-	.	.
16D-	(8F 8fL	.
16CJJ	.	.
16BB-LL	8G) 8g	.
16C	.	.
16BB-	[8G [8gJ	.
16AAJJ	.	.
16BB-LL	8G] 8gL]	.
16C	.	.
16BB-	8c 8cc	.
16AA-JJ	.	.
16GGLL	8B-' 8b-'	.
16BB-	.	.
16D-	8G' 8g'J	.
16FJJ	.	.
=104	=104	=104
16E-XLL	8r	.
16F	.	.
16E-	(8G 8gL	.
16D-JJ	.	.
16CLL	8A-) 8a-	.
16D-	.	.
16C	[8A- [8a-J	.
16BB-JJ	.	.
16CLL	8A-] 8a-L]	.
16D-	.	.
16C	(8d- 8dd-	.
16BB-JJ	.	.
16AALL	8c) 8ccJ	.
16C	.	.
16E-	16c 16ccLL	.
16G-JJ	16b-JJ	.
=105	=105	=105
16FLL	8aL>	.
16G-	.	.
16F	16b-L	.
16E-JJ	16ccJJ	.
16D-LL	16fLL	.
16E-	16g-	.
16D-	16f	.
16CJJ	16e-JJ	.
*	*^	*
!	!	!	!LO:DY:a
16D-LL	4b-'	16fLL	f
16E-	.	16g-	.
16D-	.	16f	.
16CJJ	.	16e-JJ	.
16BB-LL	4dd-'	16d-LL	.
16D-	.	16f	.
16BB-	.	16d-	.
16D-JJ	.	16fJJ	.
!!LO:LB:g=original
=106	=106	=106	=106
!	!LO:DY:rj	!	!
16CLL>	4.az	16e-LL	.
16D-	.	16f	.
16E-	.	16g-	.
16D-JJ	.	16fJJ	.
16CLL	.	8e-L	.
16D-	.	.	.
16C	8gg-	16ee-L	.
16BB-JJ	.	16dd-JJ	.
8AA	16ffLL	4cc	.
.	16gg-	.	.
8FF (8FL	16ff	.	.
.	16ee-JJ	.	.
8BB- 8B-	16dd-LL	4r	.
.	16ee-	.	.
8AA 8AJ)	16dd-	.	.
.	16ccJJ	.	.
*	*v	*v	*
=107	=107	=107
8BB- (8B-L	16dd-LL	.
.	16ee-	.
8E- 8e-)	16dd-	.
.	16ccJJ	.
8D-' 8d-'	16b-LL	.
.	16dd-	.
8BB-' 8B-'J	16ff	.
.	16aa-JJ	.
8r	16gg-LL	.
.	16aa-	.
8BB- (8B-L	16gg-	.
.	16ffJJ	.
8C 8c	16ee-LL	.
.	16ff	.
8BB- 8B-J)	16ee-	.
.	16dd-JJ	.
=108	=108	=108
8C (8cL	16ee-LL	.
.	16ff	.
8F 8f)	16ee-	.
.	16dd-JJ	.
8E-' 8e-'	16ccLL	.
.	16ee-	.
8C' 8c'J	16gg-	.
.	16bb-JJ	.
8r	16aa-LL	.
.	16bb-	.
8C (8cL	16aa-	.
.	16gg-JJ	.
8D- 8d-	16ffLL	.
.	16gg-	.
8C 8cJ)	16ff	.
.	16ee-JJ	.
*clefG2	*	*
!!LO:LB:g=original
=109	=109	=109
*	*^	*
*	*8va	*8va	*
16fLL	4ddd-'	16aa-LL	f
16g-	.	16bb-	.
16f	.	16aa-	.
16e-JJ	.	16gg-JJ	.
16d-LL	4fff'	16ffLL	.
16e-	.	16gg-	.
16f	.	16aa-	.
16d-JJ	.	16ffJJ	.
16a-LL	[4cccz	8ee-	.
16b-	.	.	.
16a-	.	8r	.
16gJJ	.	.	.
16a-LL	16cccLL]	4ryy	.
16cc	16eee-	.	.
16ee-	16ggg-	.	.
16gg-JJ	16bbb-JJ	.	.
*	*v	*v	*
=110	=110	=110
16ffLL	16aaa-LL	.
16gg-	16bbb-	.
16ff	16aaa-	.
16ee-JJ	16ggg-JJ	.
16dd-LL	16fffLL	.
16ee-	16ggg-	.
16dd-	16fff	.
16ccJJ	16eee-JJ	.
16dd-LL	16fffLL	.
16ee-	16ggg-	.
16dd-	16fff	.
16cc-JJ	16eee-JJ	.
16b-LL	16dddnLL	.
16dd	16fff	.
16ff	16aaa-	.
16aa-JJ	16cccc-JJ	.
=111	=111	=111
16gg-LL	16bbb-LL	.
16aa-	16cccc-	.
16gg-	16bbb-	.
16ffJJ	16aaa-JJ	.
16ee-LL	16ggg-LL	.
16ff	16aaa-	.
16ee-	16ggg-	.
16ddJJ	16fffJJ	.
16ee-LL	16ggg-LL	.
16ff	16aaa-	.
16ee-	16ggg-	.
16dd-JJ	16fffJJ	.
16ccLL	16eeeLL	.
16ee	16ggg	.
16gg	16bbb-	.
16ffJJ	16ddd-JJ	.
!!LO:LB:g=original
=112	=112	=112
16eeLL	16cccnLL	.
16ff	16ddd-	.
16ee	16ccc	.
16ggJJ	16bb-JJ	.
16ffLL	16aa-LL	.
16gg	16bb-	.
16ff	16aa-	.
16eeJJ	16ggJJ	.
16ffLL	16aa-LL	.
16gg	16bb-	.
16ff	16aa-	.
16ee-JJ	16ggJJ	.
16ddnLL	16ff#LL>	.
16ff#	16aa	.
16aa	16ccc	.
16cccJJ	16eee-JJ	.
=113	=113	=113
16bb-LL	16dddnLL	.
16ccc	16eee-	.
16bb-	16ddd	.
16aaJJ	16cccJJ	.
16ggLL	16bb-LL	.
16aa	16ccc	.
16gg	16bb-	.
16ff#JJ	16aaJJ	.
16ggLL	16bbLL	.
16aa	16ccc	.
16gg	16bb	.
16ff#JJ	16aaJJ	.
16ggLL	16bbLL	.
16bb	16ddd	.
16ddd	16fff	.
16fffnJJ	16aaa-XJJ	.
=114	=114	=114
16eee-LL	16gggLL	.
16fff	16aaa-	.
16eee-	16ggg	.
16dddJJ	16fffJJ	.
16cccLL	16eee-LL	.
16ddd	16fff	.
16ccc	16eee-	.
16bbJJ	16dddJJ	.
16cccLL	16eee-LL	.
16ddd	16fff	.
16ccc	16eee-	.
16bbJJ	16dddJJ	.
8ccc	16eee-LL	.
.	16ggg	.
*clefF4	*	*
16GGLL	16aaa	.
16FFJJ	16bbbJJ	.
!!LO:LB:g=original
=115	=115	=115
*ped	*	*
16EE- 16GGLL	2cccc	sf
*	*X8va	*
16C	.	.
16EE- 16GG	.	.
16CJJ	.	.
16EE- 16GGLL	.	.
16C	.	.
16EE- 16GG	.	.
16CJJ	.	.
*	*clefF4	*
16EE 16GG 16BB-LL	2CC	sf
16C	.	.
16EE 16GG 16BB-	.	.
16CJJ	.	.
16EE 16GG 16BB-LL	.	.
16C	.	.
16EE 16GG 16BB-	.	.
*Xped	*	*
16CJJ	.	.
=116	=116	=116
16FF 16AA-LL	2FFFz>	.
16C	.	.
16FF 16AA-	.	.
16CJJ	.	.
16FF 16AA-LL	.	.
16C	.	.
16FF 16AA-	.	.
16CJJ	.	.
*	*clefG2	*
16FF# 16AAn 16CLL	2ccc	sf
16E-	.	.
16FF# 16AA 16C	.	.
16E-JJ	.	.
16FF# 16AA 16CLL	.	.
16E-	.	.
16FF# 16AA 16C	.	.
16E-JJ	.	.
=117	=117	=117
*ped	*	*
!LO:DY:rj	!	!
4GGGz 4GGz	4r	.
4r	(2ggg	sf >
4r	.	.
8.r	8.eeeL	.
*Xped	*	*
16G 16e 16g	16cccJk)	] p
!!LO:LB:g=original
=118	=118	=118
4.G 4.d 4.f	(4ccc	.
.	8bbL)	.
16r	16r	.
16G 16c 16e	16aaJk	.
4G 4c (4e	(4aa	.
8G 8B 8dL)	8ggL)	.
16r	16r	.
16G 16B 16dJk	16ff 16ddd 16fffJk	.
=119	=119	=119
4G 4B (4d	4ff 4ddd (4fff	.
4G 4c 4e)	[4ee [4ccc [4eee)	.
*MM50	*MM50	*MM50
!!LO:TX:a:B:t=Meno allegro
2r	48ee] 48ccc] (48eeeLLL]	.
.	48ggg	.
.	48fff#	.
.	48ggg	.
.	48aaa	.
.	48ggg	.
.	48ddd#	.
.	48eee	.
.	48fff	.
.	48eee	.
.	48bb	.
.	48cccJJJ)	.
.	(36dddLLL	.
.	36ccc	.
.	36ff#	.
.	36gg	.
.	36gg#	.
.	36aa	.
.	36gg	.
.	36een	.
.	36ccJJJ)	.
!!LO:LB:g=original
=120	=120	=120
*	*^	*
!!LO:TX:a:B:t=Ritard
4.GG 4.D 4.F	(20ccLL	4.B 4.fn	.
.	20b	.	.
.	20cc	.	.
.	20dd	.	.
.	20ccJJ)	.	.
.	8bL	.	.
16r	16rdd	16ryy	.
16GG 16C 16F	16aJk	16c 16f	.
4.GG 4.BB 4.F	(20aLL	4.d 4.f	.
.	20g	.	.
.	20a	.	.
.	20b	.	.
.	20aJJ)	.	.
.	8gL	.	.
16r	16r	8ryy	.
16G 16d	16b 16ffJk	.	.
*	*v	*v	*
=121	=121	=121
(<4G# 4d	4b (4ff	.
4A) 4c	4cc 4ee)	.
4r	4r	.
8.r	8.r	.
*MM50	*MM50	*MM50
!!LO:TX:a:B:t=Adagio
16F 16G 16B	16g 16dd 16aa	.
=122	=122	=122
(<4F 4G 4B	4g 4dd (4aa	.
4E) 4G 4c	4g 4gg)	.
4r	4r	.
*MM120	*MM120	*MM120
8.r	8.r	.
*clefG2	*	*
*	*^	*
!!LO:TX:a:B:t=Tempo 1o
16f 16b	16aa-	16dd	.
=123	=123	=123	=123
(4f 4b	(4aa-	4dd	.
2e) 2b-	2gg	2dd-	.
[4d- [4g [4b-	[4bb-)	[4ff [4gg	.
!!LO:LB:g=original
=124	=124	=124	=124
4d-] 4g] 4b-]	4bb-]	4ff] 4gg]	.
[2d- [2g [2b-	[4bb-	[2ee [2gg	.
.	8bb-L]	.	.
.	8aa	.	.
8d-] 8g] 8b-]L	8bb-	8ee] 8ggL]	.
8d- 8f 8a-J	8bbJ	8ff 8aa-J	.
*clefF4	*	*	*
*	*v	*v	*
=125	=125	=125
2.C (2.c	16r	.
.	16ccLL	p
.	16ff	.
.	16aa-XJJ	.
.	4ccc	.
.	16r	.
.	16ccLL	.
.	16ff	.
.	16aa-JJ	.
8.AA- 8.A-L<	4ccc	.
16FF 16FJk)	.	.
=126	=126	=126
(4FF 4F	16r	.
.	16ccLL	.
.	16gg	.
.	16bb-JJ	.
8EE) 8EL	4ccc	.
16rD	.	.
16DD- 16D-Jk	.	.
(4DD- 4D-	16r	.
.	16ccLL	.
.	16ee	.
.	16ggJJ	.
8CC) 8CL	4ccc	.
16r	.	.
16BB- 16B-Jk	.	.
!!LO:LB:g=original
=127	=127	=127
*MM80	*MM80	*MM80
4BB- (4B-	16r	.
.	16ccLL	.
.	16ff	.
.	16aa-JJ	.
!!LO:TX:a:B:t=Meno allegro
4AA- 4A-)	16cccLL	.
.	16eee	.
.	16fff	.
.	16cccJJ	.
2r	(24eee-LL	.
.	24ddd-	.
.	24bb-	.
.	24ddd-	.
.	24ccc	.
.	24aa-JJ)	.
.	(24cccLL	.
.	24bb-	.
.	24gg	.
.	24bb-	.
.	24aa-	.
.	24ffJJ)	.
=128	=128	=128
*	*^	*
!!LO:TX:a:B:t=Ritard
4.C 4.G 4.c	(20ffLL	4.b-	.
.	20ee	.	.
.	20ff	.	.
.	20gg	.	.
.	20ffJJ)	.	.
.	8eeL	.	.
16r	16rdd	16ryy	.
16C 16F 16c	16dd-Jk	16a-	.
4.C 4.E 4.c	(20dd-LL	4.g	.
.	20cc	.	.
.	20dd-	.	.
.	20ee-	.	.
.	20dd-JJ	.	.
.	8ccL)	.	.
*	*v	*v	*
16r	16r	.
16E 16G 16c	16bb-Jk	.
=129	=129	=129
*MM90	*MM90	*MM90
8F 8A- 8cL	(20bb-LL	<
.	20aa-	.
.	20bb-	.
8F 8A- 8cJ	.	.
.	20ccc	.
.	20bb-JJ)	.
8r	8aa-L	.
8F# 8A 8e-	8cccJ	.
8G 8B 8dL	(20cccLL	.
.	20bb	.
.	20ccc	.
8G 8B 8dJ	.	.
.	20ddd	.
.	20cccJJ)	.
8r	8bbL	.
8G 8B 8fn	8dddJ	.
!!LO:LB:g=original
=130	=130	=130
*MM100	*MM100	*MM100
8A- 8c 8e-L	(20dddLL	.
.	20ccc	.
.	20ddd	.
8A- 8c 8e-J	.	.
.	20eee-	.
.	20dddJJ)	.
8r	8cccL	.
8A 8c 8f	8eee-J	.
8B-X 8d 8fL	(20eee-LL	.
.	20ddd	.
.	20eee-	.
8B- 8d 8fJ	.	.
.	20fff	.
.	20eee-JJ)	.
8r	8dddL	.
8B 8d 8g	8fffJ	.
=131	=131	=131
*MM105	*MM105	*MM105
*	*8va	*
8c 8e- 8gL	(20fffLL	.
.	20eee-	.
.	20fff	.
8c 8e- 8gJ	.	.
.	20ggg	.
.	20fffJJ)	.
*clefG2	*	*
8r	8eee-L	.
8c 8e- 8g	8gggJ	.
8d 8f 8a- 8bL	(20gggLL	.
.	20fff	.
.	20ggg	.
8d 8f 8a- 8bJ	.	.
.	20aaa-	.
.	20gggJJ)	.
8r	8fffL	.
8d 8f 8a- 8b	8aaa-J	.
=132	=132	=132
*MM110	*MM110	*MM110
8e- 8g 8ccL	(20aaa-LL	.
.	20ggg	.
.	20aaa-	.
8e- 8g 8ccJ	.	.
.	20bbb-	.
.	20aaa-JJ)	.
8r	8gggL	.
8e 8g 8cc	8bbb-J	.
8f 8a- 8ccL	(20bbb-LL	.
.	20aaa-	.
.	20bbb-	.
8f 8a- 8ccJ	.	.
.	20cccc	.
.	20bbb-JJ)	.
8r	8aaa-L	.
8f 8a- 8dd	8bbbJ	.
!!LO:LB:g=original
=133	=133	=133
*MM120	*MM120	*MM120
8f# 8a 8ee-XL	(16ccccLL	ff
.	16eeee-)	.
(16aaL	(16aaa	.
16cccJJ)	16ccccJJ)	.
(16ff#LL	(16fff#LL	.
16aa)	16aaa)	.
(16ee-	(16eee-	.
16ff#JJ)	16fff#JJ)	.
*	*X8va	*
(16ccLL	(16cccLL	.
16ee-)	16eee-)	.
(16a	(16aan	.
16ccJJ)	16cccJJ)	.
(16f#LL	(16ff#XLL	.
16a)	16aa)	.
(16e-X	(16ee-X	.
16f#JJ)	16ff#JJ)	.
*clefF4	*	*
=134	=134	=134
(16dLL	(16ddLL	.
16fn)	16ffn)	.
(16B	(16b	.
16dJJ)	16ddJJ)	.
(16A-XLL	16a-XLL	.
16B)	16b	.
(16Fn	(16fn	.
16A-JJ)	16a-JJ)	.
(16DLL	(16dLL	.
16F)	16f)	.
(16BB	(16B	.
16DJJ)	16dJJ)	.
(16AA-XLL	(16A-XLL	.
16BB)	16B)	.
(16AA-	(16A-	.
16BBJJ)	16BJJ)	.
=135	=135	=135
!!LO:TX:a:i:t=non legato
16GGLL	16GLL	p
16BB	16B	.
16C	16c	.
16DJJ	16dJJ	.
16E-LL	16e-LL	<
16F	16f	.
16G	16g	.
16A-JJ	16a-JJ	.
16BLL	16bLL	.
16c	16cc	.
16d	16dd	.
16e-JJ	16ee-JJ	.
*clefG2	*	*
16fLL	16ffLL	.
16f#J	16ff#	.
8gJ	16gg	.
.	16ff#JJ	.
*clefF4	*	*
!!LO:LB:g=original
=136	=136	=136
4CC' 4C'	16aa-LL	ff
.	16gg	.
.	16ee-	.
.	16ccJJ	.
4EE-' 4E-'	16aa-LL	.
.	16gg	.
.	16ee-	.
.	16ccJJ	.
2BBB 2BB	16aa-LL	sf
.	16gg	.
.	16ffn	.
.	16ddJJ	.
.	16aa-LL	.
.	16gg	.
.	16ff	.
.	16ddJJ	.
=137	=137	=137
4BBB-' 4BB-'	16ddd-LL	.
.	16ccc	.
.	16gg	.
.	16eeJJ	.
4CC' 4C'	16ddd-LL	.
.	16ccc	.
.	16gg	.
.	16eeJJ	.
2AAA 2AA	16gggLL	sf
.	16fff	.
.	16ccc	.
.	16ffJJ	.
.	16gggLL	.
.	16fff	.
.	16ccc	.
.	16ffJJ	.
=138	=138	=138
4AAA-X' 4AA-X'	16gggLL	.
.	16fff#	.
.	16eee-	.
.	16cccJJ	.
4CC' 4C'	16gggLL	.
.	16fff#	.
.	16eee-	.
.	16cccJJ	.
(4GGG' 4GG'	16aaa-LL	sf
.	16ggg	.
.	16eee-	.
.	16cccJJ	.
8.CC) 8.CL	16fffLL	.
.	16eee-	.
.	16ccc	.
16EE- 16E-Jk	16ggJJ	.
!!LO:LB:g=original
=139	=139	=139
4GG' 4G'	16fffLL	.
.	16eee-	.
.	16ccc	.
.	16ggJJ	.
4GGG' 4GG'	16eee-LL	.
.	16dddn	.
.	16bb	.
.	16ffJJ	.
*	*^	*
16r	4ccc'	8ee- 8ggL	.
16dLL	.	.	.
16c	.	8ee- 8gg	.
16BJJ	.	.	.
16cLL	4eee-'	8ee- 8gg	.
16d	.	.	.
16e-	.	8ee- 8ggJ	.
16cJJ	.	.	.
=140	=140	=140	=140
16r	2bbz	8dd 8ggL	.
16AALL	.	.	.
16GG	.	8dd 8gg	.
16FF#JJ	.	.	.
16GGLL	.	8dd 8gg	.
16AA	.	.	.
16BB	.	8dd 8ggJ	.
16GGJJ	.	.	.
16r	4bb-'	8cc 8ggL	.
16fLL	.	.	.
16e	.	8cc 8gg	.
16dJJ	.	.	.
16eLL	4ccc'	8cc 8gg	.
16f	.	.	.
16g	.	8cc 8ggJ	.
16eJJ	.	.	.
=141	=141	=141	=141
16r	2aaz	8cc 8ffL	.
16GGLL	.	.	.
16FF	.	8cc 8ff	.
16EEJJ	.	.	.
16FFLL	.	8cc 8ff	.
16GG	.	.	.
16AA	.	8cc 8ffJ	.
16FFJJ	.	.	.
16r	4aa-'	8cc 8ffL	.
16GLL	.	.	.
16F	.	8cc 8ff	.
16EJJ	.	.	.
16FLL	4ccc'	8cc 8ff	.
16G	.	.	.
16A-X	.	8cc 8ee-J	.
16F#JJ	.	.	.
!!LO:LB:g=original
=142	=142	=142	=142
!	!	!	!LO:DY:rj
16GLL	(4gg	4cc 4ee-	sf
16E-X	.	.	.
16C	.	.	.
16GGJJ	.	.	.
*	*8va	*8va	*
16EE-LL	8.cccL	8.ccL	.
16GG	.	.	.
16EE-	.	.	.
16CCJJ	16eee-Jk	16ee-Jk	.
16BBBLL	8gggL)	8gg	.
16GG	.	.	.
16DD	8ggg'J	8rgg	.
16GGJJ	.	.	.
16EE-LL	(8.gggtL	4ryy	.
16GG	.	.	.
16FF	.	.	.
16GGJJ	32fff#LL	.	.
.	32gggJJJ)	.	.
*	*v	*v	*
=143	=143	=143
16EE-LL	(8gggL	.
16GG	.	.
16DD	8bbbJ)	.
16GGJJ	.	.
!	!	!LO:HP:b
16EE-LL	(8bbbL	>
16GG	.	.
16CC	8ccccJ)	]
*	*X8va	*
16GGJJ	.	.
16BBBLL	8r	.
16GG	.	.
16DD	8gg'	.
16GGJJ	.	.
16EE-LL	(8.ggtL	.
16GG	.	.
16FF	.	.
16GGJJ	32ff#LL	.
.	32ggJJJ)	.
=144	=144	=144
16EE-LL	(8ggL	.
16GG	.	.
16DD	8bbJ)	.
16GGJJ	.	.
!	!	!LO:HP:b
16EE-LL	(8bbL	>
16GG	.	.
16CC	8cccJ)	]
16GGJJ	.	.
16BBBLL	8r	.
16GG	.	.
16DD	8g	.
16GGJJ	.	.
16AA-LL	16a-LL	.
16GG	16g	.
16AA	16a	.
16BBJJ	16bJJ	.
!!LO:LB:g=original
=145	=145	=145
16CLL	16ccLL	sf
16D	16dd	.
16E-	16ee-	.
16DJJ	16ddJJ	.
16E-LL	16ee-LL	sf
16E	16ee	.
16F	16ff	.
16EJJ	16eeJJ	.
16FLL	16ffLL	sf
16F#	16ff#	.
16G	16gg	.
16F#JJ	16ff#JJ	.
16GLL	16ggLL	sf
16A	16aa	.
16B-	16bb-	.
16BJJ	16bbJJ	.
*clefG2	*	*
=146	=146	=146
*	*8va	*
16cLL	16cccLL	sf
16d	16ddd	.
16e-X	16eee-X	.
16dJJ	16dddJJ	.
16e-LL	16eee-LL	sf
16e	16eee	.
16f	16fff	.
16eJJ	16eeeJJ	.
16fLL	16fffLL	sf
16f#	16fff#	.
16g	16ggg	.
16f#JJ	16fff#JJ	.
16gLL	16gggLL	sf
16a	16aaa	.
16b-	16bbb-	.
16bJJ	16bbbJJ	.
=147	=147	=147
4cc	4cccc	ff
*	*X8va	*
*clefF4	*	*
4CC 4C	4c 4cc	sf
4r	4r	.
4CC 4C	4e# 4f 4a 4ee-	sf
=148	=148	=148
4r	4r	.
4CC 4C	4d 4fn 4a-X 4bn	sf
4r	4r	.
4CC 4C	4f 4a- 4b 4dd	sf
!!LO:LB:g=original
=149	=149	=149
4r	4r	.
4CC 4C	4d-' 4e' 4g' (>4b-X'	>
4r	4r	.
4CC 4C	4e' 4g' 4b-' 4dd-'	.
=150	=150	=150
4r	4r	.
4CC 4C	4c' 4f' 4a'	.
4r	4r	.
4CC 4C	4f' 4a' 4cc')	.
=151	=151	=151
8r	2r	.
16CLL	.	.
16D-JJ	.	.
16CLL	.	.
16BB-X	.	.
16AA-X	.	.
16GGJJ	.	.
16FFLL	2f 2a-X 2cc	p
16C	.	.
16D-	.	.
16CJJ	.	.
16BB-LL	.	.
16AA-	.	.
16GG	.	.
16FFJJ	.	.
=152	=152	=152
*	*^	*
16EELL	2cc	2g 2b-	.
16C	.	.	.
16D-	.	.	.
16CJJ	.	.	.
16BB-LL	.	.	.
16GG	.	.	.
16EE	.	.	.
16CJJ	.	.	.
16FFLL	(4.cc	2f 2a-	<
16C	.	.	.
16D-	.	.	.
16CJJ	.	.	.
16BB-LL	.	.	.
16AA-	.	.	.
16GG	8b 8dd	.	.
16FFJJ	.	.	[[
!!LO:LB:g=original
=153	=153	=153	=153
16CCLL	4cc 4ee	4e 4g	>
16DDn	.	.	.
16EE	.	.	.
16FFJJ	.	.	.
16GGLL	4cc)	(>8eL	]
16CC	.	.	.
16DD	.	16fL	.
16EEJJ	.	16gJJ)	.
16FFLL	2cc	2f 2a-	.
16C	.	.	.
16D-	.	.	.
16CJJ	.	.	.
16BB-LL	.	.	.
16AA-	.	.	.
16GG	.	.	.
16FFJJ	.	.	.
=154	=154	=154	=154
16EELL	2cc	2g 2b-	.
16C	.	.	.
16D-	.	.	.
16CJJ	.	.	.
16BB-LL	.	.	.
16GG	.	.	.
16EE	.	.	.
16CJJ	.	.	.
16FFLL	(4.cc	2f 2a-	<
16C	.	.	.
16D-	.	.	.
16CJJ	.	.	.
16BB-LL	.	.	.
16AA-	.	.	.
16GG	8ff	.	.
16FFJJ	.	.	[[
=155	=155	=155	=155
16CCLL	4ee 4gg	4g 4cc	>
16DDn	.	.	.
16EE	.	.	.
16FFJJ	.	.	.
16GGLL	4cc)	(>8eL	]
16CC	.	.	.
16DD	.	16fL	.
16EEJJ	.	16gJJ)	.
16FFLL	2a- 2cc	2c 2f	.
16C	.	.	.
16D-	.	.	.
16CJJ	.	.	.
16BB-LL	.	.	.
16AA-	.	.	.
16GG	.	.	.
16FFJJ	.	.	.
!!LO:LB:g=original
=156	=156	=156	=156
16EELL	2cc	2c 2g 2b-	.
16C	.	.	.
16D-	.	.	.
16CJJ	.	.	.
16BB-LL	.	.	.
16GG	.	.	.
16EE	.	.	.
16CJJ	.	.	.
16FFLL	4.a- (4.cc	4.c 4.f	.
16AA-	.	.	<
16FF	.	.	.
16CCJJ	.	.	.
16FFLL	.	.	.
16AA-	.	.	.
16FF	8aa- 8bb)	8dd 8ff	.
16CCJJ	.	.	.
*	*v	*v	*
=157	=157	=157
16FFLL	1dd 1ff 1aa- 1bb	.
16AA-	.	.
16FF	.	[
16CCJJ	.	.
16FFLL	.	>
16AA-	.	.
16FF	.	.
16CCJJ	.	.
16FFLL	.	.
16AA-	.	.
16FF	.	.
16CCJJ	.	.
16FFLL	.	.
16AA-	.	.
16FF	.	.
16CCJJ	.	]]
=158	=158	=158
*ped	*	*
16GGLL	2ee 2gg 2ccc	p
16C	.	>
16GG	.	.
16CCJJ	.	.
16GGLL	.	.
16C	.	.
16GG	.	.
16CCJJ	.	.
16GGLL	2ee 2gg 2ccc	.
16E	.	.
16GG	.	.
16CCJJ	.	.
16GGLL	.	.
16E	.	.
16GG	.	.
16CCJJ	.	.
=159	=159	=159
1CCC 1CC	1ee 1gg 1ccc	pp
*Xped	*	*
==	==	==
*-	*-	*-
!!!RDF**kern: < = below
!!!RDF**kern: > = above
!!!verovio: beamFrenchStyle
!!!LOR: Durand 1915, plates 9327/9328, Paul Dukas, ed.
!!!PED: Dukas, Paul
!!!URL-vhv: https://verovio.humdrum.org/?file=beethoven/sonatas/sonata32-1.krn
!!!URL-pdf: https://github.com/craigsapp/beethoven-piano-sonatas/blob/master/reference-edition/sonata32-1.pdf
!!!ENC: Craig Stuart Sapp
!!!END: 2004/04/07
!!!EED: Craig Stuart Sapp
!!!EEV: 2022/04/16
